src/assets/icons/chevron-down.svg

<svg viewBox="0 0 24 24" fill="currentColor" xmlns="http://www.w3.org/2000/svg">
<path fill-rule="evenodd" clip-rule="evenodd" d="M3.40004 8.55004C3.62598 8.2488 4.03503 8.16591 4.3565 8.34005L4.45004 8.40004L11.85 13.95C11.9212 14.0034 12.0136 14.014 12.0932 13.982L12.15 13.95L19.5501 8.40004C19.8815 8.15152 20.3516 8.21868 20.6001 8.55005C20.8261 8.85129 20.7911 9.26719 20.5339 9.52704L20.4501 9.60005L13.05 15.1501C12.4723 15.5834 11.6933 15.6143 11.0868 15.2429L10.95 15.15L3.55004 9.60004C3.21867 9.35152 3.15152 8.88142 3.40004 8.55004Z" fill="currentColor"/>
</svg>

<svg xmlns="http://www.w3.org/2000/svg" width="24" height="24" viewBox="0 0 24 24">
    <g fill="none" fill-rule="evenodd">
        <path d="M3.4 8.55c.226-.301.635-.384.956-.21l.094.06 7.4 5.55c.071.053.164.064.243.032l.057-.032 7.4-5.55c.331-.249.802-.181 1.05.15.226.301.191.717-.066.977l-.084.073-7.4 5.55c-.578.433-1.357.464-1.963.093l-.137-.093-7.4-5.55c-.331-.249-.399-.719-.15-1.05z" transform="translate(-420 -326) translate(262 287) translate(0 28) translate(150 3) translate(8 8)" fill="currentColor"/>
    </g>
</svg>
